img/logo_mi_grey.svg

<svg width="64" height="64" viewBox="0 0 64 64" fill="none" xmlns="http://www.w3.org/2000/svg">
<path d="M53.4704 10.1976C48.2846 5.02761 40.8221 4.44263 31.6996 4.44263C22.5771 4.44263 15.083 5.02761 9.8814 10.2134C4.67982 15.3991 4.17389 22.8616 4.17389 31.9999C4.17389 41.1383 4.74306 48.6007 9.89721 53.7549C15.0514 58.909 22.5454 59.4624 31.6996 59.4624C40.8537 59.4624 48.3004 58.9723 53.4862 53.7549C58.6719 48.5375 59.2095 41.1067 59.2095 31.9683C59.2095 22.83 58.6877 15.3833 53.4704 10.1976ZM29.6601 42.1818C29.6601 42.2698 29.6251 42.3543 29.5628 42.4165C29.5006 42.4788 29.4161 42.5138 29.328 42.5138H24.585C24.4969 42.5138 24.4125 42.4788 24.3502 42.4165C24.2879 42.3543 24.2529 42.2698 24.2529 42.1818V29.8972C24.2529 29.8536 24.2615 29.8104 24.2782 29.7701C24.2949 29.7298 24.3194 29.6932 24.3502 29.6624C24.381 29.6316 24.4176 29.6071 24.4579 29.5904C24.4982 29.5737 24.5414 29.5652 24.585 29.5652H29.328C29.3716 29.5652 29.4148 29.5737 29.4551 29.5904C29.4954 29.6071 29.532 29.6316 29.5628 29.6624C29.5937 29.6932 29.6181 29.7298 29.6348 29.7701C29.6515 29.8104 29.6601 29.8536 29.6601 29.8972V42.1818ZM38.8617 42.1818C38.8576 42.2712 38.8191 42.3557 38.7544 42.4176C38.6896 42.4794 38.6034 42.5139 38.5138 42.5138H34.0395C33.9535 42.5108 33.8713 42.4773 33.8076 42.4194C33.7439 42.3615 33.7029 42.2829 33.6917 42.1976V31.6205C33.6917 29.7865 33.581 27.8893 32.6324 26.8774C31.4785 26.0758 30.0791 25.7063 28.6798 25.8339H20.5533C20.5097 25.8339 20.4666 25.8425 20.4263 25.8592C20.386 25.8759 20.3494 25.9004 20.3186 25.9312C20.2877 25.962 20.2633 25.9986 20.2466 26.0389C20.2299 26.0792 20.2213 26.1223 20.2213 26.1659V42.1818C20.2175 42.2686 20.1812 42.3508 20.1198 42.4122C20.0583 42.4737 19.9761 42.5099 19.8893 42.5138H15.4308C15.3412 42.5139 15.2551 42.4794 15.1903 42.4176C15.1255 42.3557 15.0871 42.2712 15.083 42.1818V21.7707C15.0871 21.6812 15.1255 21.5967 15.1903 21.5349C15.2551 21.4731 15.3412 21.4386 15.4308 21.4387H28.3004C31.6838 21.4387 35.1937 21.5968 36.9486 23.3359C38.7036 25.075 38.8458 28.6007 38.8458 31.9841L38.8617 42.1818ZM48.0632 42.1818C48.0594 42.2686 48.0232 42.3508 47.9617 42.4122C47.9003 42.4737 47.818 42.5099 47.7312 42.5138H43.2411C43.153 42.5138 43.0686 42.4788 43.0063 42.4165C42.9441 42.3543 42.9091 42.2698 42.9091 42.1818V21.7707C42.9091 21.6826 42.9441 21.5982 43.0063 21.5359C43.0686 21.4737 43.153 21.4387 43.2411 21.4387H47.7154C47.8035 21.4387 47.8879 21.4737 47.9502 21.5359C48.0124 21.5982 48.0474 21.6826 48.0474 21.7707L48.0632 42.1818Z" fill="#2A3333"/>
</svg>

<svg width="64" height="64" fill="none" xmlns="http://www.w3.org/2000/svg"><path d="M53.47 10.198c-5.185-5.17-12.648-5.755-21.77-5.755-9.123 0-16.617.585-21.819 5.77C4.68 15.4 4.174 22.862 4.174 32s.57 16.6 5.723 21.755c5.154 5.154 12.648 5.707 21.803 5.707 9.154 0 16.6-.49 21.786-5.707 5.186-5.218 5.724-12.648 5.724-21.787 0-9.138-.522-16.585-5.74-21.77ZM29.66 42.182a.332.332 0 0 1-.332.332h-4.743a.332.332 0 0 1-.332-.332V29.897a.332.332 0 0 1 .332-.332h4.743a.332.332 0 0 1 .332.332v12.285Zm9.202 0a.349.349 0 0 1-.348.332h-4.475a.364.364 0 0 1-.347-.316V31.62c0-1.834-.111-3.73-1.06-4.743a5.977 5.977 0 0 0-3.952-1.043h-8.127a.332.332 0 0 0-.332.332v16.016a.347.347 0 0 1-.332.332h-4.458a.348.348 0 0 1-.348-.332V21.77a.348.348 0 0 1 .348-.332H28.3c3.383 0 6.893.158 8.648 1.897s1.897 5.265 1.897 8.648l.016 10.198Zm9.201 0a.347.347 0 0 1-.332.332h-4.49a.332.332 0 0 1-.332-.332V21.77a.332.332 0 0 1 .332-.332h4.474a.332.332 0 0 1 .332.332l.016 20.41Z" fill="#2A3333"/></svg>
